X:1
T:[ID 7-43]
T:[ID 7-43]
T:Bezeichnung standardisiert: Polonaise Polonoise
T:Urheber unbekannt Datum in der hier transkribierten schriftlichen Quelle: 1776 - 1791
C:Urheber unbekannt
C:Datum in der hier transkribierten schriftlichen Quelle: 1776 - 1791
%%score 1 2
L:1/8
M:3/4
K:D
V:1 treble 
V:2 treble 
V:1
 d2 a2 g/f/e/d/ | c/d/e/c/ A4 | BG Bg/f/ e/d/c/B/ | AF Af/e/ d/c/B/A/ | G>E g>e f>d | %5
 c/d/e/c/{c} d4 :: a2 e2 d/c/B/A/ | ^G/A/B/G/ E4 | .e2 .d2 .c2 | B/d/c/B/ A4 | %10
"^O)" A2 a2 g/f/e/d/ | A2 gg/f/{f} e2 |"^O)" A2 a2 g/f/e/d/ | A2 gg/f/{f} e2 | BG Bg/f/ e/d/c/B/ | %15
 AF Af/e/ d/c/B/A/ | G>E g>e f>d | c/d/e/c/{c} d4 :| %18
V:2
 !fermata!F2 f2 d2 | A2 E4 | GE Ge/d/ c/B/A/E/ | FD Fd/c/ B/A/^G/F/ | B2 e>c A>F | %5
 E/F/G/E/{E} F4 :: c2 c2 A2 | E4 E2 | c2 B2 A2 | ^G4 E2 |"^O)" A2 f2 d2 | A2 ee/d/ c2 | A2 f2 d2 | %13
"^O)" A2 ee/d/ c2 | GE Ge/d/c/B/A/G/ | FD Fd/c/B/A/^G/F/ | G>E e>c d>F | E/F/G/E/{E} F4 :| %18

